X:34
T:Mehdi
C:Nasredine Dalil
D:Mugar
M:6/8
L:1/8
R:jig
K:Bmin
FBB fBf|ece dcB|FBB fBf|efd c2B|
FBB fBf|ece def|afb fed|cBA B3|
fa|bff bff|gag gfe|1bff bff|gag g2f:|2fdf ece|dcA BBA||
